Sources/FrostedUI/Resources/Icons.xcassets/expand24.imageset/expand-24.svg

<svg width="24" height="24" viewBox="0 0 24 24" fill="none" xmlns="http://www.w3.org/2000/svg" data-fui-icon="true">
  <path
    d="M13.9697 13.9697C14.2626 13.6769 14.7374 13.6769 15.0303 13.9697L21.2412 20.1807V15.0967C21.2412 14.6825 21.577 14.3467 21.9912 14.3467C22.4053 14.3468 22.7412 14.6826 22.7412 15.0967V21.9912C22.7411 22.4052 22.4052 22.741 21.9912 22.7412H15.0967C14.6826 22.7412 14.3468 22.4053 14.3467 21.9912C14.3467 21.577 14.6825 21.2412 15.0967 21.2412H20.1807L13.9697 15.0303C13.6768 14.7374 13.6768 14.2626 13.9697 13.9697ZM8.90332 1.25879C9.31744 1.25879 9.65316 1.59471 9.65332 2.00879C9.65327 2.42296 9.3175 2.75879 8.90332 2.75879H3.81934L10.0303 8.96973C10.3232 9.26262 10.3232 9.73738 10.0303 10.0303C9.73738 10.3231 9.2626 10.3231 8.96973 10.0303L2.75879 3.81934V8.90332C2.75879 9.31753 2.423 9.65332 2.00879 9.65332C1.59472 9.65315 1.25879 9.31743 1.25879 8.90332V2.00879C1.25895 1.59482 1.59482 1.25896 2.00879 1.25879H8.90332Z"
    fill="currentColor"
  />
</svg>

<svg xmlns="http://www.w3.org/2000/svg" width="24" height="24" fill="none" data-fui-icon="true" viewBox="0 0 24 24"><path fill="currentColor" d="M13.97 13.97a.75.75 0 0 1 1.06 0l6.211 6.21v-5.083a.75.75 0 0 1 1.5 0v6.894a.75.75 0 0 1-.75.75h-6.894a.75.75 0 0 1 0-1.5h5.084l-6.211-6.21a.75.75 0 0 1 0-1.061M8.903 1.259a.75.75 0 0 1 0 1.5H3.82l6.211 6.21a.75.75 0 1 1-1.06 1.061L2.759 3.82v5.083a.75.75 0 0 1-1.5 0V2.01a.75.75 0 0 1 .75-.75z"/></svg>
